src/icons/jest.svg

<svg width="16" height="16" viewBox="0 0 16 16" fill="none" xmlns="http://www.w3.org/2000/svg">
<path d="M10.1201 5.474L9.44507 6.842C9.66707 7.048 9.82307 7.319 9.88507 7.627H10.3951C10.4531 7.336 10.5971 7.074 10.8021 6.871L10.1201 5.474Z" fill="#FC8289"/>
<path d="M8.87709 6.511L10.1201 3.991L11.3601 6.527C11.4094 6.51167 11.4584 6.49767 11.5071 6.485L12.6851 3H7.55209L8.72709 6.475C8.77739 6.48571 8.8274 6.49772 8.87709 6.511ZM8.45009 8.74C8.59879 8.73994 8.74471 8.69965 8.87237 8.62339C9.00002 8.54713 9.10467 8.43774 9.1752 8.30683C9.24573 8.17592 9.27952 8.02836 9.27298 7.8798C9.26645 7.73124 9.21984 7.58722 9.13809 7.463C9.11069 7.4218 9.08027 7.3827 9.04709 7.346L9.04309 7.342C9.01041 7.30599 8.97347 7.27409 8.93309 7.247L8.92909 7.244C8.91842 7.23733 8.90642 7.22967 8.89309 7.221C8.89109 7.21967 8.88909 7.21867 8.88709 7.218L8.84709 7.195H8.84409L8.80209 7.172H8.79909C8.78637 7.16524 8.77296 7.15988 8.75909 7.156C8.75642 7.15533 8.75309 7.15433 8.74909 7.153L8.71709 7.139C8.71442 7.13767 8.71009 7.13667 8.70409 7.136C8.69109 7.133 8.67809 7.126 8.66409 7.123H8.66209L8.61609 7.113C8.61342 7.113 8.60909 7.112 8.60309 7.11C8.59109 7.108 8.57909 7.10567 8.56709 7.103C8.56109 7.103 8.55575 7.102 8.55109 7.1L8.51809 7.097H8.39009C8.37809 7.09767 8.36609 7.09867 8.35409 7.1H8.34109C8.32775 7.102 8.31442 7.10433 8.30109 7.107H8.29109L8.24609 7.117C8.06771 7.16223 7.90942 7.26545 7.79611 7.41045C7.68279 7.55544 7.62087 7.73398 7.62009 7.918C7.62373 8.13591 7.71232 8.34378 7.86698 8.49732C8.02165 8.65087 8.23016 8.73794 8.44809 8.74M11.9081 7.09H11.9021C11.8901 7.08933 11.8781 7.08833 11.8661 7.087H11.8231C11.8078 7.087 11.7904 7.088 11.7711 7.09H11.7551C11.7418 7.09133 11.7284 7.09267 11.7151 7.094C11.7121 7.094 11.7051 7.094 11.7031 7.097L11.6531 7.107H11.6501L11.6051 7.117L11.5921 7.12C11.5788 7.122 11.5654 7.12633 11.5521 7.133C11.5494 7.13433 11.5461 7.13533 11.5421 7.136L11.4971 7.156L11.4511 7.176C11.4484 7.17733 11.4451 7.17833 11.4411 7.179C11.4284 7.18433 11.4154 7.192 11.4021 7.202C11.4008 7.202 11.3998 7.203 11.3991 7.205C11.3688 7.22167 11.3403 7.24145 11.3141 7.264L11.3111 7.267C11.2257 7.33053 11.1553 7.41214 11.1051 7.506C11.0332 7.63131 10.9955 7.77332 10.9958 7.91779C10.9962 8.06226 11.0345 8.2041 11.1069 8.3291C11.1793 8.4541 11.2833 8.55787 11.4085 8.62998C11.5337 8.7021 11.6756 8.74004 11.8201 8.74C12.2741 8.74 12.6421 8.37 12.6421 7.915C12.6417 7.72435 12.5756 7.53966 12.4551 7.39197C12.3345 7.24428 12.1668 7.14259 11.9801 7.104C11.9594 7.09733 11.9354 7.09267 11.9081 7.09ZM5.04009 8.74C5.25889 8.74 5.46873 8.65308 5.62345 8.49836C5.77817 8.34365 5.86509 8.1338 5.86509 7.915C5.86509 7.6962 5.77817 7.48635 5.62345 7.33164C5.46873 7.17692 5.25889 7.09 5.04009 7.09C4.82128 7.09 4.61144 7.17692 4.45672 7.33164C4.30201 7.48635 4.21509 7.6962 4.21509 7.915C4.21509 8.1338 4.30201 8.34365 4.45672 8.49836C4.61144 8.65308 4.82128 8.74 5.04009 8.74Z" fill="#FC8289"/>
<path d="M11.827 9.37801C11.147 9.37801 10.577 8.91001 10.414 8.28101H9.866C9.77508 8.63185 9.55726 8.93649 9.25468 9.13599C8.9521 9.33549 8.58628 9.41567 8.228 9.36101C8.03866 9.65234 7.812 9.92201 7.548 10.17C7.09922 10.5995 6.56637 10.9315 5.983 11.145L5.849 11.194L5.725 11.128C5.04 10.775 4.687 10.058 4.811 9.36501C4.73435 9.35178 4.65905 9.3317 4.586 9.30501C4.574 9.32967 4.562 9.35501 4.55 9.38101C4.341 9.81301 4.123 10.258 4.044 10.736C3.959 11.246 3.924 12.179 4.641 12.676C4.93599 12.8875 5.29003 13.0008 5.653 13C6.361 13 7.125 12.62 7.933 12.218C8.567 11.904 9.219 11.577 9.898 11.41C10.1523 11.3515 10.4092 11.3054 10.668 11.272C11.128 11.207 11.566 11.142 11.921 10.935C12.2191 10.766 12.4475 10.4965 12.5652 10.1746C12.683 9.85278 12.6826 9.49955 12.564 9.17801C12.349 9.30201 12.098 9.37801 11.827 9.37801Z" fill="#FC8289"/>
</svg>

<svg xmlns="http://www.w3.org/2000/svg" width="16" height="16" fill="none"><g fill="#FC8289"><path d="m10.12 5.474-.675 1.368c.222.206.378.477.44.785h.51c.058-.291.202-.553.407-.756z"/><path d="m8.877 6.511 1.243-2.52 1.24 2.536q.074-.023.147-.042L12.685 3H7.552l1.175 3.475a3 3 0 0 1 .15.036M8.45 8.74a.824.824 0 0 0 .688-1.277 1 1 0 0 0-.091-.117l-.004-.004a.6.6 0 0 0-.11-.095l-.004-.003q-.016-.01-.036-.023-.003-.002-.006-.003l-.04-.023h-.003l-.042-.023h-.003a.2.2 0 0 0-.04-.016q-.004-.001-.01-.003l-.032-.014q-.004-.002-.013-.003c-.013-.003-.026-.01-.04-.013h-.002l-.046-.01q-.004 0-.013-.003-.018-.003-.036-.007-.009 0-.016-.003l-.033-.003H8.39q-.018.001-.036.003h-.013q-.02.003-.04.007h-.01l-.045.01a.83.83 0 0 0-.626.801.836.836 0 0 0 .828.822M11.908 7.09h-.006q-.018-.001-.036-.003h-.043q-.023 0-.052.003h-.016q-.02.002-.04.004c-.003 0-.01 0-.012.003l-.05.01h-.003l-.045.01-.013.003q-.02.003-.04.013-.004.002-.01.003l-.045.02-.046.02q-.004.002-.01.003-.019.008-.039.023-.002 0-.003.003a.5.5 0 0 0-.085.059l-.003.003a.723.723 0 0 0-.206.239.824.824 0 0 0 .715 1.234c.454 0 .822-.37.822-.825a.83.83 0 0 0-.662-.811q-.031-.01-.072-.014M5.04 8.74a.824.824 0 0 0 0-1.65.824.824 0 0 0 0 1.65"/><path d="M11.827 9.378c-.68 0-1.25-.468-1.413-1.097h-.548a1.464 1.464 0 0 1-1.638 1.08q-.284.437-.68.809a4.5 4.5 0 0 1-1.565.975l-.134.049-.124-.066c-.685-.353-1.038-1.07-.914-1.763a1.3 1.3 0 0 1-.225-.06q-.018.037-.036.076c-.209.432-.427.877-.506 1.355-.085.51-.12 1.443.597 1.94A1.73 1.73 0 0 0 5.653 13c.708 0 1.472-.38 2.28-.782.634-.314 1.286-.641 1.965-.808a8 8 0 0 1 .77-.138c.46-.065.898-.13 1.253-.337a1.445 1.445 0 0 0 .643-1.757c-.215.124-.466.2-.737.2"/></g></svg>
